X: 25639
T: Martin Mulvihill's
R: jig
M: 6/8
K: Dmixolydian
A2 G|:FEF GEC|Ddc Ade|fed cAG|F/G/AF GEC|
F3 GFG|Ad^c d2 e|fed cAG|1 Ad^c dAG:|2 Ad^c d2 e||
|:def gfg|aba ged|fef gfg|agf g2 e|
f>ff gfg|afd cAG|F3 GFG|1 Ad^c d2 A:|2 Ad^c d3||

